X: 3
T: The Ivy Leaf
C: 
M: 4/4
L: 1/8
R: reel
K: A Dorian
|: cB |\
A/B/A eA cdec | Acec dBGB | 
A/B/A eA cdeA | BEGE dG :|
|: B/c/d |
eaag e2 B/c/d | eaag e/g/e dg |
[1 eaag edBA | BEGB dG :|
[2 eAAB c2 cd | eg f/g/a gB |]
